resources/icons/20px/vertical-inbetween.svg

<svg width="20" height="20" viewBox="0 0 20 20" fill="none" xmlns="http://www.w3.org/2000/svg">
<path fill-rule="evenodd" clip-rule="evenodd" d="M0 0H20V1C20 1.55228 19.5523 2 19 2H1C0.447715 2 0 1.55228 0 1V0ZM6.29259 11.2926C5.90247 11.6827 5.90247 12.3152 6.29259 12.7053L9.25498 15.6677C9.26708 15.6812 9.27962 15.6944 9.29259 15.7074C9.48791 15.9027 9.744 16.0003 10 16C10.256 16.0003 10.5121 15.9027 10.7074 15.7074C10.7204 15.6944 10.7329 15.6812 10.745 15.6677L13.7074 12.7053C14.0975 12.3152 14.0975 11.6827 13.7074 11.2926C13.3173 10.9025 12.6848 10.9025 12.2947 11.2926L10 13.5873L7.70533 11.2926C7.31521 10.9025 6.68271 10.9025 6.29259 11.2926ZM6.29259 7.29467C5.90247 7.68479 5.90247 8.31729 6.29259 8.70741C6.68271 9.09753 7.31521 9.09753 7.70533 8.70741L10 6.41274L12.2947 8.70741C12.6848 9.09753 13.3173 9.09753 13.7074 8.70741C14.0975 8.31729 14.0975 7.68479 13.7074 7.29467L10.745 4.33228C10.7329 4.31879 10.7204 4.30556 10.7074 4.29259C10.5121 4.09727 10.256 3.99974 10 4C9.744 3.99974 9.48791 4.09727 9.29259 4.29259C9.27962 4.30556 9.26708 4.31879 9.25498 4.33228L6.29259 7.29467ZM20 19V20H0V19C0 18.4477 0.447715 18 1 18H19C19.5523 18 20 18.4477 20 19Z" fill="black"/>
</svg>

<svg xmlns="http://www.w3.org/2000/svg" viewBox="0 0 20 20">
  <path d="M0 0h20v1a1 1 0 0 1-1 1H1a1 1 0 0 1-1-1zm6.293 11.293a1 1 0 0 0 0 1.412l2.962 2.963.038.04A1 1 0 0 0 10 16a1 1 0 0 0 .745-.332l2.962-2.963a.999.999 0 0 0-1.412-1.412L10 13.587l-2.295-2.294a1 1 0 0 0-1.412 0m0-3.998a.999.999 0 1 0 1.412 1.412L10 6.413l2.295 2.294a.999.999 0 1 0 1.412-1.412l-2.962-2.963-.038-.04A1 1 0 0 0 10 4a1 1 0 0 0-.745.332zM20 19v1H0v-1a1 1 0 0 1 1-1h18a1 1 0 0 1 1 1"/>
</svg>
